src/topics/icons/kore.svg

<svg height="273" preserveAspectRatio="xMidYMid" viewBox="0 0 256 273" width="256" xmlns="http://www.w3.org/2000/svg"><path d="m235.064998 64.604c34.744 53.273 24.716 120.053-18.778 152.069-38.21 28.125-95.885 25.379-128.3669998-13.767 41.9719998 7.829 85.2079998 5.441 116.1979998-24.114 30.806-29.38 38.865-66.941 30.947-114.188" fill="#6cc24a"/><path d="m56.8199997 23.861c52.3000003-36.192 119.3300003-27.999 152.5260003 14.6 29.163 37.424 28.332 82.173-1.877 122.023 6.675-42.17-5.262-78.651-35.655-108.819-30.214-29.988-67.982-37.014-114.9940003-27.804" fill="#a77bca"/><path d="m22.8610566 199.116937c-36.192-52.3-27.99899999-119.33 14.6-152.526 37.424-29.164 87.0950004-26.222 126.9450004 9.772-42.171-6.676-83.5730004-2.633-113.7410004 27.76-29.988 30.214-37.014 67.982-27.804 114.994" fill="#ef3340"/><path d="m193.330815 239.545c-31.572 18.785-67.758 24.99-97.9000002 16.112l-60.215 17.632 6.224-56.236c-.35-.519-.694-1.04-1.031-1.563-25.275-39.17-16.762-99.995 19.231-126.99-9.551 41.614-8.104 85.773 20.149 117.953 28.0870002 31.99 65.9790002 43.376 113.5420002 33.092" fill="#009cde"/></svg>

<?xml version="1.0" encoding="UTF-8" standalone="no"?>
<svg width="256px" height="273px" viewBox="0 0 256 273" version="1.1" xmlns="http://www.w3.org/2000/svg" xmlns:xlink="http://www.w3.org/1999/xlink" preserveAspectRatio="xMidYMid">
	<g>
		<path d="M235.064998,64.604 C269.808998,117.877 259.780998,184.657 216.286998,216.673 C178.076998,244.798 120.401998,242.052 87.9199982,202.906 C129.891998,210.735 173.127998,208.347 204.117998,178.792 C234.923998,149.412 242.982998,111.851 235.064998,64.604" fill="#6CC24A"></path>
		<path d="M56.8199997,23.861 C109.12,-12.331 176.15,-4.138 209.346,38.461 C238.509,75.885 237.678,120.634 207.469,160.484 C214.144,118.314 202.207,81.833 171.814,51.665 C141.6,21.677 103.832,14.651 56.8199997,23.861" fill="#A77BCA"></path>
		<path d="M22.8610566,199.116937 C-13.3309434,146.816937 -5.13794339,79.786937 37.4610566,46.590937 C74.8850566,17.426937 124.556057,20.368937 164.406057,56.362937 C122.235057,49.686937 80.8330566,53.729937 50.6650566,84.122937 C20.6770566,114.336937 13.6510566,152.104937 22.8610566,199.116937" fill="#EF3340"></path>
		<path d="M193.330815,239.545 C161.758815,258.33 125.572815,264.535 95.4308148,255.657 L35.2158148,273.289 L41.4398148,217.053 C41.0898148,216.534 40.7458148,216.013 40.4088148,215.49 C15.1338148,176.32 23.6468148,115.495 59.6398148,88.5 C50.0888148,130.114 51.5358148,174.273 79.7888148,206.453 C107.875815,238.443 145.767815,249.829 193.330815,239.545" fill="#009CDE"></path>
	</g>
</svg>
